X: 23136
T: Lay Dee At Dee
R: reel
M: 4/4
K: Dmajor
|:AB|defe d2d2|ABAG FED2|d2ef gfed|efed cBA2|
defe d2d2|ABAG FED2|d2ef gfec|e2d2 d2:|
|:e2|f2df afdf|afdf g3f|e2Ae ecAc|edcB A3e|
f2df afdf|afdf g3f|efgf edcB|A2d2d2:|

